X: 5878
T: Calum Ross
R: strathspey
M: 4/4
K: Dmajor
F>E|:D3 E F3 A|B>d e2 e2 d>B|A2 B>F E2 D>E|F>E B2 A>A F>E|
D3 E F3 A|B>d e2 e2 d>B|A2 B>F E2 D>E|F>E F<A B4:|
f>g f>d e2 d>c|A>F d>c B2 A>F|A2 B>F E2 D>E|F>E B2 A4|
f>g f>d e2 d>c|A>F d>c B2 A>F|A2 B>F E2 D>E|F>E F<A B4|
f>g a>f e2 d>c|A>F d>c B2 A>F|A2 B>F E2 D>E|F>E B2 A2 F>E|
D3 E F3 A|B>d e2 e2 d>B|A2 B>F E2 D>E|F>E F<A B4:|

